assets/features/global-acquiring/pay.svg

<svg width="38" height="30" viewBox="0 0 38 30" fill="none" xmlns="http://www.w3.org/2000/svg">
<path d="M37 6.783V3.7176C37 2.2149 35.7788 1 34.2685 1H3.7315C2.2212 1 1 2.2149 1 3.7176V6.783C1 7.0467 1.2169 7.2626 1.482 7.2626H36.518C36.7831 7.2626 37 7.0467 37 6.783ZM36.518 9.8043H1.482C1.2169 9.8043 1 10.0202 1 10.2839V25.8824C1 27.3851 2.2212 28.6 3.7315 28.6H34.2685C35.7788 28.6 37 27.3851 37 25.8824V10.2839C37 10.0202 36.7831 9.8043 36.518 9.8043ZM18.992 19.8236L18.2569 23.972C18.2167 24.1998 18.0158 24.3677 17.7829 24.3677H16.1921C15.8909 24.3677 15.6659 24.0999 15.7181 23.8042L16.4532 19.6558C16.4934 19.428 16.6943 19.2601 16.9272 19.2601H18.518C18.8192 19.2641 19.0442 19.5319 18.992 19.8236ZM24.1377 19.8236L23.4026 23.972C23.3624 24.1998 23.1616 24.3677 22.9286 24.3677H21.3379C21.0366 24.3677 20.8116 24.0999 20.8639 23.8042L21.599 19.6558C21.6391 19.428 21.84 19.2601 22.073 19.2601H23.6637C23.965 19.2641 24.1899 19.5319 24.1377 19.8236ZM31.8503 19.8236L31.1152 23.972C31.075 24.1998 30.8741 24.3677 30.6412 24.3677H26.4836C26.1823 24.3677 25.9574 24.0999 26.0096 23.8042L26.7447 19.6558C26.7849 19.428 26.9857 19.2601 27.2187 19.2601H31.3763C31.6735 19.2641 31.9025 19.5319 31.8503 19.8236Z" stroke="#9095A1" stroke-width="2"/>
</svg>

<svg xmlns="http://www.w3.org/2000/svg" width="38" height="30" fill="none" viewBox="0 0 38 30"><path stroke="#9095a1" stroke-width="2" d="M37 6.783V3.718A2.72 2.72 0 0 0 34.269 1H3.732A2.72 2.72 0 0 0 1 3.718v3.065c0 .264.217.48.482.48h35.036a.48.48 0 0 0 .482-.48Zm-.482 3.021H1.482a.48.48 0 0 0-.482.48v15.598A2.72 2.72 0 0 0 3.732 28.6h30.537A2.72 2.72 0 0 0 37 25.882V10.284a.48.48 0 0 0-.482-.48Zm-17.526 10.02-.735 4.148a.48.48 0 0 1-.474.396h-1.59a.48.48 0 0 1-.475-.564l.735-4.148a.48.48 0 0 1 .474-.396h1.591a.482.482 0 0 1 .474.564Zm5.146 0-.735 4.148a.48.48 0 0 1-.474.396h-1.591a.48.48 0 0 1-.474-.564l.735-4.148a.48.48 0 0 1 .474-.396h1.59a.482.482 0 0 1 .475.564Zm7.712 0-.735 4.148a.48.48 0 0 1-.474.396h-4.157a.48.48 0 0 1-.474-.564l.735-4.148a.48.48 0 0 1 .474-.396h4.157a.484.484 0 0 1 .474.564Z"/></svg>
